X:1
T:Title
L:1/8
M:2/4
K:Ab
V:1 treble nm="Grand Piano"
V:1
 z2 z[Q:1/4=100] A | A2 FG | A2 FA | c2 BA | G3 G | G2 =EF | G2 AG | F4- | F3 A | A2 FG | A2 FG | %11
 A2 Bc | d3 d | d2 d>d | d2 ed | c4- | c3 c | c2 ce | dc B=A | B2 B>c | B3 B | B2 Bd | cB AG | %23
 A4- | A3 A | A2 Ac | BA GF | G2 G>A | G3 G | c2 BA | G2 AB | c4- | c3 c | c2 ce | dc B=A | %35
 B2 B>c | B3 B | B2 Bd | cB AG | A4- | A3 A | A2 Ac | BA GF | G2 G>A | G3 G | c2 BA | G2 AG | F4- | %48
 F4 |] %49

